packages/icon/src/svg/social-dribbble.icon.svg

<svg width="24" height="24" viewBox="0 0 24 24" fill="none" xmlns="http://www.w3.org/2000/svg">
<path fill-rule="evenodd" clip-rule="evenodd" d="M15 13.1701C15.5 13.1001 16 13.0601 16.58 13.0601H16.6C17.53 13.0601 18.55 13.1801 19.66 13.4301C19.28 15.5001 18.08 17.2701 16.42 18.4201C16 16.5001 15.5 14.7301 15 13.1701ZM7.35999 18.26C7.63999 17.81 8.22999 16.94 9.17999 16.04C10.14 15.11 11.5 14.15 13.23 13.58C13.82 15.25 14.36 17.15 14.77 19.29C13.91 19.62 13 19.8 12 19.8C10.26 19.8 8.65999 19.23 7.35999 18.26ZM4.19995 11.89C4.41995 11.9 4.70995 11.9 5.04995 11.9C6.61995 11.89 9.35995 11.76 12.14 10.89C12.29 11.22 12.44 11.56 12.59 11.92C10.73 12.54 9.26995 13.53 8.18995 14.5C7.15995 15.46 6.44995 16.39 6.03995 17C4.89995 15.66 4.19995 13.91 4.19995 12C4.19995 11.96 4.19995 11.93 4.19995 11.89ZM11.3401 9.25C9.00005 9.96 6.61005 10.12 5.18005 10.12C5.14005 10.12 5.10005 10.12 5.06005 10.12C4.81005 10.12 4.60005 10.12 4.43005 10.11C5.00005 7.87 6.50005 6 8.55005 5C9.10005 5.65 10.1801 7.06 11.3401 9.25ZM16.86 5.90995C15.84 7.13995 14.5 7.99995 13.03 8.64995C12 6.66995 11 5.24995 10.34 4.37995C10.88 4.26995 11.43 4.19995 12 4.19995C13.84 4.19995 15.53 4.83995 16.86 5.90995ZM19.7901 11.6301C18.6601 11.3901 17.6001 11.2801 16.6001 11.2801C15.7901 11.2801 15.0401 11.3501 14.3301 11.4701C14.1601 11.0501 14.0001 10.6501 13.8101 10.2601C15.3901 9.57005 16.9001 8.58005 18.1301 7.18005C19.1001 8.42005 19.7101 9.96005 19.7901 11.6301ZM2 12C2 14.6522 3.05357 17.1957 4.92893 19.0711C6.8043 20.9464 9.34784 22 12 22C14.6522 22 17.1957 20.9464 19.0711 19.0711C20.9464 17.1957 22 14.6522 22 12C22 9.34784 20.9464 6.8043 19.0711 4.92893C17.1957 3.05357 14.6522 2 12 2C6.47715 2 2 6.47715 2 12Z" fill="white"/>
</svg>

<svg aria-label="social dribbble icon" viewBox="0 0 24 24"><path fill-rule="evenodd" clip-rule="evenodd" d="M15 13.17c.5-.07 1-.11 1.58-.11h.02c.93 0 1.95.12 3.06.37a7.788 7.788 0 01-3.24 4.99A57.5 57.5 0 0015 13.17zm-7.64 5.09c.28-.45.87-1.32 1.82-2.22.96-.93 2.32-1.89 4.05-2.46.59 1.67 1.13 3.57 1.54 5.71-.86.33-1.77.51-2.77.51-1.74 0-3.34-.57-4.64-1.54zM4.2 11.89c.22.01.51.01.85.01 1.57-.01 4.31-.14 7.09-1.01.15.33.3.67.45 1.03-1.86.62-3.32 1.61-4.4 2.58-1.03.96-1.74 1.89-2.15 2.5a7.704 7.704 0 01-1.84-5v-.11zm7.14-2.64c-2.34.71-4.73.87-6.16.87h-.12c-.25 0-.46 0-.63-.01C5 7.87 6.5 6 8.55 5c.55.65 1.63 2.06 2.79 4.25zm5.52-3.34C15.84 7.14 14.5 8 13.03 8.65 12 6.67 11 5.25 10.34 4.38c.54-.11 1.09-.18 1.66-.18 1.84 0 3.53.64 4.86 1.71zm2.93 5.72a15.32 15.32 0 00-3.19-.35c-.81 0-1.56.07-2.27.19-.17-.42-.33-.82-.52-1.21 1.58-.69 3.09-1.68 4.32-3.08a7.823 7.823 0 011.66 4.45zM2 12A10 10 0 1012 2C6.477 2 2 6.477 2 12z"/></svg>
